X:1
T:Title
%%score 1 { 2 | 3 }
L:1/8
Q:1/4=95
M:4/4
K:Bb
V:1 treble nm="Grand Piano, Soprano"
V:2 bass nm="Choir Pad, Bettendorf, Philip Phillips"
V:3 bass 
V:1
 [B,D]>[CE] [DF]>[EG] [DF]2 [DB]2 | [Fd]>[Ec] [DB]>[EG] [DF]4 | F>[FG] [FA]>[FB] [Fc]2 [FA]2 | %3
w: By~Philip~Phillips,~1890 * * * * *|||
 [FB]>[EA] [DB]>[Fc] [Fd]2 z2 | [B,D]>[CE] [DF]>[EG] [DF]2 [DB]2 | [Fd]>[Ec] [DB]>[EG] [DF]4 | %6
w: |||
 F>[=EG] [_EA]>[DB] [Fc]2 [Fe]2 | [Fd]>[Gc] [FB]>[FA] [FB]4 | [Fc]>[Fc] [Fc]>[Fc] [Fc]2 z2 | %9
w: |||
 [Fd]>[Fd] [Fd]>[Fd] [Fd]2 z2 | [Ge]>[Ge] [Ge]>[Ge] [Fd]2 [Ec]2 | [DB]>[DB] [EA]>[EA] [DB]4- | %12
w: |||
 [DB]4 z4 |] %13
w: |
V:2
 F,>F, B,>B, B,2 B,2 | B,>F, F,>B, B,4 | A,>B,[K:treble] C>D E2 C2 | D>C[K:bass] B,>A, B,2 z2 | %4
 F,>F, B,>B, B,2 B,2 | B,>F, F,>B, B,4 | A,>B, C>B, A,2[K:treble] C2 | B,>E D>C D4 | %8
 A,>A, A,>A, A,2 z2 | B,>B, B,>B, B,2 z2 | B,>B, B,>B, B,2 A,2 | B,>B, C>C B,4- | B,4 z4 |] %13
V:3
 B,,>B,, B,,>B,, B,,2 B,,2 | B,,>B,, B,,>B,, B,,4 | F,>F, F,>F, F,2 F,2 | F,>F, F,>F, B,,2 z2 | %4
 B,,>B,, B,,>B,, B,,2 B,,2 | B,,>B,, B,,>B,, B,,4 | F,>F, F,>F, F,2 A,2 | z z/ E,/ F,>F, B,,4 | %8
 F,>F, F,>F, F,2 z2 | B,,>B,, B,,>B,, B,,2 z2 | E,>E, E,>E, F,2 F,2 | F,>F, F,>F, B,,4- | %12
 B,,4 z4 |] %13

